X:1
T:Kingdom Coming
M:2/4
L:1/8
K:C
 z2 z G| CE EG| Ge e/2d/2 c/2A/2| Gc cE| D3 G| CE EG| Ge e/2d/2 c/2A/2|\
 Gc d3/2 d/2| c3 G| A3/2 A/2 Ac| G3/2 A/2G/2 F/2E/2 F/2| Gc cE| D3 G|\
 CE EG| Ge/2-e/2 e/2d/2 c/2A/2| Gc d3/2 d/2| c3 G| A3/2 B/2 c3/2 A/2|\
 c3 A| G3/2 A/2 G3/2 E/2| G3 G| CE EG| Ge e/2d/2 c/2A/2| Gc d3/2 d/2|\
 c3 z|
